X: 4177
M: C|
L: 1/8
K: Em	% and/or A dorian
cB |\
(3A,A,A, (A,B,) CDEG | AcB^G A2 :|\
(AB) |:\
[1 Aaa^g a=gef | gedB BAAB :|\
[2 gfef gfga | bagf edcB |]


